X:1
T:Laudenbacher
C:Trad.
O:Deutschland
Z:Bart Vanhaverbeke 
P:ABCD
L:1/4
M:3/4
K:C
P:A
G||c2 G/c/|e2 c/e/|g g/g/ g | g g g | e2 c/e/ |d2 B/d/|c c/c/ c|c>z |]
P:B
e||g/ z/ g>e|c/z/ c>B|d d>B|G2 f|f/a/ a>g|f e d |1 (g3|g) z e :|2 c e d|c z |] 
P:C
e||e/g/ g2|c/e/ e2|d/f/ f e | d z f | f/a/ a g | f e d |1 (g3|g) z e :|2 c e d | c z|]
P:D
E/G/ || c E G | c E G | F d>c|B D F | B D F | G e>d | c E G | F d>c | B D F | B D B | c z |]
P:Naspel
G|c e/d/c/e/|g f/e/ f|d f/e/d/f/|a g/^f/ g|e c'/b/a/g/|f a/g/f/e/|d/e/f/g/a/b/ |c'2|]
